X:775
%%etbk:tnset id:512,pos:1,rep:3x,ant:
%%etbk:pldat 2016-09-04T13:10,2016-06-21T16:53,2016-06-18T15:37,2016-06-16T18:51,2016-06-14T16:48,2016-06-13T16:40,2016-04-28T18:48,2016-04-26T15:46
T: The Shepherd Lad
Z: Piano Box Version by Martin Fleischmann
H: Created 2016-04-26 /  Last Modified 2016-06-21
M:4/4
L:1/8
C:
R: song
K: Fmaj
P:Verse
|: "F" AG FE DC CC|CC CC "C" G4  |"F" AG FE DC CC  | "C" CC CF "F" F4 | 
| "F"AA AG/A/ "B"B/A/ -A/GF/ | "F"C2A2 A"C"G-G2 | "F"AG FE DC CC  | "C" CC CF "F" F4  :|
P:Refrain
|: "F" AG FE DC CC|CC CG"C" G4  |"F" AG FE DC CC  | "C" CC GF "F" F4 | 
| "B" B<B AA "F"AG F2 | "F"B<B AF"C"G4 | "F"AG FE DC CC  | "B" CB "C"AG "F" G/F/-F3  :|
P:Tune
|  "F"!4!AAAG !2!FGAF| "B"!3!GDDC D2!3!F!2!D | "F"B,!1!CCC !3!F!4!G!3!GF  | "C"!3!GGGA G2FG | 
"F"!4!A3c AGFA| "B"GDDC D2FD | "F"B,CCC "C"!4!GAGF  | "F"-Fz CB, !1!CDF!4!G  
|  "F"!3!A3A AGGF | "B"FBBA B2AB | "F"c2c2-c2BA  | "C"ABG2-G2cB |
"F"!3!A3c !4!AGFA| "B"GDDC D2FD | "F"B,CCC "C"CDCB,  | "F"C8
W:Intro 
W:FFFF | FFFF
W:V1
W:FFFF | FFCC | 
W:FFFF | FCFF |
W:FFFF | FFCC |
W:FFFF | FC 
W:Bridge
W:FFBB | FFCC
W:V2
W:FFBB | FFCC |
W:FFBB | CCFF |
W:FFBB | FFCC |
W:FFBB | CC
W:Bridge
W:FFBB | FFCC
W:V3
W:FFBB | FFCC |
W:FFBB | CCdmF |
W:FFBB | FFCC |
W:FFBB | CC FF |
W:V4
W:FFBB | FFCC |
W:FFBB | FCFF |
W:BBFF | BFCC |
W:dmdmBam | CC BBBB |
W:Tune
W:Bridge
W:FFBB | FFCC
W:V5
W:FFBB | FFCC | 
W:FFBB | FCFF |
W:FFBB | FFCC |
W:FFBB | FCFF 
W:V6
W:FFBB | FFCC |
W:FFBB | CCdmF |
W:BBFF | BFCC |
W:dmdmBam | CC FF |
W:BBFF | BFCC |
W:dmdmBam | CC BBBB |
W:Tune


